X: 241
T: The Ettrick Shepherd
B: John Pringle "Collection of Reels Strathspeys & Jigs", 1801 p.24#1
Z: 2011 John Chambers <jc:trillian.mit.edu>
Q: "Slowish"
R: jig
M: 6/8
L: 1/8
K: D
V: 1
F/G/ |\
Add (dcB) | (BA)G ~.F2A | (Bcd) (gfe) | (dc).e ~A2G |\
(FA).d (dc).B | (Bgf) ~e2(f/g/) | afb gec | (.d.d.d) d2 :|
|: (c/d/) |\
!f!eee ~c2(d/e/) | (fga) !p!~b2a/g/ | .f(fg) f2e/d/ | c(e/d/c/B/) ~A2G |\
!f!(FA).d (dc).B | !p!(Bgf) ~e2f/g/ | !f!a~g/f/~e/d/ | (Bgb) | .a(.A.c) d2 :|
V: 2 clef=bass middle=d
   z |\
zd'c' bag | f2g dfa | g2G A2c | aec A2z |\
dfa bgf | g2^g a2z | d3 a2A | dAF D2 :|
|: z |\
Ace aAz | d2f g2z | dfa d2z | ze^g a/b/a/=g/f/e/ |\
dfa bag | g2^g a2z | d2f g2^g | a2A d2 :|

%%sep 2 1 500

